!!!!SEGMENT: pl-cz--iii-332--001-008_just-franciszek-kasper--dixit-dominus-judicabit-in-nationibus.krn
!!!cenid: 17xx:913
!!!COM: Just, Franciszek Kasper
!!!COM-rismID: pe30098311
!!!CDT: 1717-1760
!!!CNT: Czech
!!!OPR: Dixit Dominus
!!!OTL: Judicabit in nationibus
!!!OMV: 008
!!!PDT:
!!!AGN: Sacred
!!!YEC: Copyright 2022 Narodowy Instytut Fryderyka Chopina (https://polishscores.org)
!!!YEM: License CC-BY-4.0 (https://creativecommons.org/licenses/by/4.0)
!!!SMS-siglum: PL-CZ
!!!SMS-shelfmark: III-332
!!!SMS-shelfwork: 001-008 M
!!!SMS-variant:
!!!SMS-altvar:
!!!NIFC-rismSourceID: 300000542
!!!NIFC-rismChildID: 300000542
!!!NIFC-islandoraID: pl-cz:37699
!!!URL-pdf-islandora: https://repozytorium.nifc.pl/islandora/object/pl-cz%3A37699/datastream/PDF/view
!!!URL-scan: https://polish.musicsources.pl/pl/lokalizacje/galeria/rekopisy/6905/1 @EN{Scan on Polish Music Sources Website} @PL{Skany w portalu Dziedzictwo Muzyki Polskiej w otwartym dostępie}
!!!IIIF:
!!!ONB-nifc: UWAGA: części Dixit Dominus: Dixit Dominus, Virgam virtutis tuae, Dominare in medio, Tecum principium, Juravit Dominus, Tu es sacerdos, Dominus a dextris, Judicabit in nationibus, De torrente, Gloria patri
!!!AIN: 1 alto 1 bass 2 clrno 1 organ 1 soprn 1 tenor 2 violn
!!!key: D
**kern	**fba	**kern	**kern	**kern	**text	**kern	**text	**kern	**text	**kern	**text	**kern	**kern
*	*	*group3	*group3	*group2	*	*group2	*	*group2	*	*group2	*	*group1	*group1
*part9	*	*part8	*part7	*part6	*	*part5	*	*part4	*	*part3	*	*part2	*part1
*staff9	*	*staff8	*staff7	*staff6	*	*staff5	*	*staff4	*	*staff3	*	*staff2	*staff1
*I"Fundamento	*	*I"Violino Secundo	*I"Violino Primo.	*I"Basso	*	*I"Tenore	*	*I"Alto	*	*I"Canto	*	*I"Clarino 2do.	*I"Clarino Primo ex D
*I'bc	*	*I'vl 2	*I'vl 1	*I'B	*	*I'T	*	*I'A	*	*I'S	*	*I'clno 2 in D	*I'clno 1 in D
*Iorgan	*	*Ivioln	*Ivioln	*Ibass	*	*Itenor	*	*Ialto	*	*Isoprn	*	*Iclrno	*Iclrno
*ICklav	*	*ICstr	*ICstr	*ICvox	*	*ICvox	*	*ICvox	*	*ICvox	*	*ICbras	*ICbras
*IGcont	*	*	*	*	*	*	*	*	*	*	*	*	*
*clefF4	*	*clefG2	*clefG2	*clefF4	*	*clefC4	*	*clefC3	*	*clefC1	*	*clefG2	*clefG2
*	*	*	*	*	*	*	*	*	*	*	*	*ITrd-1c-2	*ITrd-1c-2
*k[f#c#]	*	*k[f#c#]	*k[f#c#]	*k[f#c#]	*	*k[f#c#]	*	*k[f#c#]	*	*k[f#c#]	*	*k[f#c#]	*k[f#c#]
*D:	*	*D:	*D:	*D:	*	*D:	*	*D:	*	*D:	*	*D:	*D:
*M4/4	*	*M4/4	*M4/4	*M4/4	*	*M4/4	*	*M4/4	*	*M4/4	*	*M4/4	*M4/4
*met(c)	*	*met(c)	*met(c)	*met(c)	*	*met(c)	*	*met(c)	*	*met(c)	*	*met(c)	*met(c)
*2\right	*	*2\right	*2\right	*2\right	*	*2\right	*	*2\right	*	*2\right	*	*	*
=1	=1	=1	=1	=1	=1	=1	=1	=1	=1	=1	=1	=1	=1
!LO:TX:i:a:t=Tarde	!	!LO:TX:i:a:t=Tardi T.	!	!LO:TX:i:a:t=Tarde	!	!LO:TX:a:t=T. Tarde	!	!LO:TX:i:a:t=Tarde T.	!	!LO:TX:i:a:t=Tarde	!	!LO:TX:i:a:t=Tarde	!LO:TX:i:a:t=Tarde
!	!	!	!	!	!	!LO:TX:t=P:problem=kolejność znaków&colon;c#F#	!	!	!	!LO:TX:t=P:problem=kolejność znaków&colon;cc#f#	!	!	!
2B\	.	2b\	2ff#\	[2B\	Ju-	(2d\	Ju-	[2b\	Ju-	(2dd\	Ju-	1r	1r
4B\	4 2	4b\	4ee\	4B\]	.	4c#\)	.	4b\]	.	4ee\)	.	.	.
4A#X\	6	4a#X/	4ff#\	4A#X\	-di-	4c#\	-di-	4a#X\	-di-	4ff#\	-di-	.	.
=2	=2	=2	=2	=2	=2	=2	=2	=2	=2	=2	=2	=2	=2
2d\	.	2dd\	2ff#\	2d\	-ca-	2B\	-ca-	2f#\	-ca-	2ff#\	-ca-	1r	1r
4c#\	6\	4cc#\	4ee\	4c#\	-bit	4c#\	-bit	4a#X\	-bit	4ee,\	-bit	.	.
4F#\	#	4cc#\	4ff#\	4F#\	in	4c#\	in	4f#\	in	4ff#\	in	.	.
=3	=3	=3	=3	=3	=3	=3	=3	=3	=3	=3	=3	=3	=3
4B\	.	4dd\	4bb\	4B\	Na-	4d\	Na-	4f#\	Na-	4dd\	Na-	1r	1r
4F#\	.	4cc#\	4ff#\	4F#\	-ti-	4c#\	-ti-	4f#\	-ti-	4ff#\	-ti-	.	.
4.G\	6	4.b\	4.ee\	4.G\	-o-	4.e\	-o-	4.b\	-o-	4.ee\	-o-	.	.
8G\	.	8b\	8ee\	8G\	-ni-	8e\	-ni-	8b\	-ni-	8ee\	-ni-	.	.
=4	=4	=4	=4	=4	=4	=4	=4	=4	=4	=4	=4	=4	=4
!	!	!LO:TX:i:b:t=Implebit	!	!	!	!	!	!	!	!	!	!	!
!LO:TX:i:a:t=Presto	!	!LO:TX:i:a:t=Presto	!	!LO:TX:i:a:t=Presto	!	!LO:TX:i:a:t=Presto	!	!	!	!	!	!LO:TX:i:a:t=Presto	!
!	!	!	!	!	!	!	!	!LO:TX:i:a:t=Allegro	!	!	!	!	!
8F#\L	#	16cc#\LL	16ff#\LL	8F#\	-bus,	8c#\	-bus	8a#X\	-bus	8ff#,\	-bus	8r	8r
.	.	16a#X\	16cc#\	.	.	.	.	.	.	.	.	.	.
16F#\L	.	16cc#\	16ff#\	8F#\	im-	8c#\	im-	8a#\	im-	8ff#\	im-	8f#/L	8f#/L
16F#\JJ	.	16a#\JJ	16cc#\JJ	.	.	.	.	.	.	.	.	.	.
8F#\L	.	16cc#\LL	16ff#\LL	8F#\	-ple-	8c#\	-ple-	8a#\	-ple-	8ff#\	-ple-	8f#/	8f#/
.	.	16a#\	16cc#\	.	.	.	.	.	.	.	.	.	.
!	!	!	!	!	!	!	!	!	!	!	!LO:MO:mod=-bit	!	!
8F#\J	.	16cc#\	16ff#\	16F#\	-bit	16c#\	-bit	16a#\	-bit	16ff#,\	-vit	8f#/J	8f#/J
.	.	16a#\JJ	16cc#\JJ	16F#\	ru-	16c#\	ru-	16a#\	ru-	16ff#\	ru-	.	.
!LO:TX:t=P:problem=mixed beam	!	!	!	!	!	!	!	!	!	!	!	!	!
8B\L	.	16dd\LL	16ff#\LL	8B\	-i-	8d\	-i-	8b\	-i-	8ff#\	-i-	8f#/L	8f#/L
.	.	16b\	16dd\	.	.	.	.	.	.	.	.	.	.
8BB/J	.	16dd\	16ff#\	8BB/	-nas	8d\	-nas	8b\	-nas	8ff#\	-nas	8f#/J	8f#/J
.	.	16b\JJ	16dd\JJ	.	.	.	.	.	.	.	.	.	.
4r	.	16dd\LL	16ff#\LL	4r	.	4r	.	4r	.	4r	.	4r	4r
.	.	16b\	16dd\	.	.	.	.	.	.	.	.	.	.
.	.	16dd\	16ff#\	.	.	.	.	.	.	.	.	.	.
.	.	16b\JJ	16dd\JJ	.	.	.	.	.	.	.	.	.	.
=5	=5	=5	=5	=5	=5	=5	=5	=5	=5	=5	=5	=5	=5
8r	.	16ee\LL	16aa\LL	8r	.	8r	.	8r	.	8r	.	8r	8r
.	.	16cc#\	16ee\	.	.	.	.	.	.	.	.	.	.
!	!	!	!	!LO:TX:t=P:problem=kasownik przed pauzą	!	!	!	!	!	!	!	!	!
8An\L	.	16ee\	16aa\	8An\	im-	8c#\	im-	8an\	im-	8ee\	im-	8a/L	8ee\
.	.	16cc#\JJ	16ee\JJ	.	.	.	.	.	.	.	.	.	.
8A\	.	16ee\LL	16aa\LL	8A\	-ple-	8c#\	-ple-	8a\	-ple-	8ee\	-ple-	8a/	8ee\L
.	.	16cc#\	16ee\	.	.	.	.	.	.	.	.	.	.
!	!	!	!	!	!	!	!	!	!	!	!LO:MO:mod=-bit	!	!
8A\J	.	16ee\	16aa\	16A\	-bit	16c#\	-bit	16a\	-bit	16ee,\	-vit	8a/J	16ee\L
.	.	16cc#\JJ	16ee\JJ	16A\	ru-	16c#\	ru-	16a\	ru-	16ee\	ru-	.	16ee\JJ
!LO:TX:t=P:problem=mixed beam	!	!	!	!	!	!	!	!	!	!	!	!	!
!	!	!	!	!	!	!	!	!LO:LB:g=original	!	!	!	!	!
8d\L	.	16ff#\LL	16aa\LL	8d\	-i-	8d\	-i-	8a\	-i-	8ee\	-i-	8dd\L	8ff#\L
.	.	16dd\	16ff#\	.	.	.	.	.	.	.	.	.	.
8D/J	.	16ff#\	16aa\	8D/	-nas	8d\	-nas	8a\	-nas	8ee\	-nas	8dd\J	8ff#\J
.	.	16dd\JJ	16ff#\JJ	.	.	.	.	.	.	.	.	.	.
8r	.	16ee\LL	16aa\LL	8r	.	4r	.	4r	.	4r	.	4r	4r
.	.	16cc#\	16ff#\	.	.	.	.	.	.	.	.	.	.
*	*	*	*	*custos:d	*	*	*	*	*	*	*	*	*
8A\	.	16ee\	16aa\	8A\	ru-	.	.	.	.	.	.	.	.
.	.	16cc#\JJ	16ff#\JJ	.	.	.	.	.	.	.	.	.	.
!	!	!	!	!LO:LB:g=original	!	!	!	!	!	!	!	!	!
=6	=6	=6	=6	=6	=6	=6	=6	=6	=6	=6	=6	=6	=6
8d\L	.	4ff# 4a 4d/	4ff# 4a 4d/	8d\L	i-	4r	.	4r	.	4r	.	8r	8r
16c#\L	.	.	.	16c#\L	.	.	.	.	.	.	.	8dd\L	8ff#\L
16B\JJ	.	.	.	16B\JJ	.	.	.	.	.	.	.	.	.
16A\LL	.	8r	8r	16A\LL	.	8r	.	8r	.	8r	.	8dd\	8ff#\
16G\	.	.	.	16G\	.	.	.	.	.	.	.	.	.
*	*	*	*	*	*	*	*	*	*	*custos:ff#	*	*	*
16F#\	.	8a/	8aa\	16F#\	.	8e\	im-	8a\	ru-	8aa\	ru-	8dd\J	8ff#\J
16E\JJ	.	.	.	16E\JJ	.	.	.	.	.	.	.	.	.
!	!	!LO:LB:g=original	!	!	!	!	!	!	!	!LO:LB:g=original	!	!	!
!	!	!	!	!	!	!LO:LB:g=original	!	!	!	!	!	!	!
8D/L	.	8dd\L	8ff#\L	8D/	.	8d\	-ple-	8dd\L	-i-	8ff#\	-i-	4dd\	4ff#\
16D/L	.	16cc#\L	16ff#\L	16D,/	-nas	16d\	-bit	16cc#\L	.	16ff#,\	-nas	.	.
16D/JJ	.	16b\JJ	16ff#\JJ	16D/	im-	16d\	ru-	16b\JJ	.	16ff#\	ru-	.	.
8A\L	.	16a/LL	8ee\L	8A\	-ple-	8e\	-i-	16a\LL	.	8ee\	-i-	8r	8r
.	.	16g/	.	.	.	.	.	16g\	.	.	.	.	.
8A\J	.	16f#/	16ee\L	16A\	-bit	16A/	-nas	16f#\	.	16ee,\	-nas	8a/	8ee\
.	.	16e/JJ	16ee\JJ	16A\	ru-	16A/	im-	16e\JJ	.	16ee\	ru-	.	.
!LO:LB:g=original	!	!	!LO:LB:g=original	!	!	!	!	!	!	!	!	!	!
=7	=7	=7	=7	=7	=7	=7	=7	=7	=7	=7	=7	=7	=7
!LO:TX:t=P:problem=mixed beam	!	!	!	!	!	!	!	!	!	!	!	!	!
8d\L	.	8d/L	8ff#\L	8d\	-i-	8d\L	-ple-	8d\	.	8ff#\	-i-	8dd\L	8ff#\L
8D/J	.	8d/J	8ff#\J	8d\	-nas	16c#\L	.	8d\	-nas	8ff#\	-nas	16dd\L	16ff#\L
.	.	.	.	.	.	16B\JJ	.	.	.	.	.	16dd\JJ	16ff#\JJ
8r	.	8r	8r	8r	.	16A/LL	.	8r	.	8r	.	8dd\L	8ff#\L
.	.	.	.	.	.	16G/	.	.	.	.	.	.	.
8d\	.	8a/	8ff#\	8d\	im-	16F#/	.	8a\	im-	8ff#\	im-	8dd\J	8ff#\J
.	.	.	.	.	.	(16E/JJ	.	.	.	.	.	.	.
!	!	!	!	!	!	!	!	!	!	!	!	!LO:TX:t=P:problem=trudno wskazać poprawną wysokość dźwięku w tym pionie dla trąbki w stroju naturalnym	!
!	!	!	!	!	!	!	!	!	!	!	!	!	!LO:LB:g=original
8B\L	6\ 4	8b/L	8ee\L	8B\	-ple-	8D/)	.	8b\	-ple-	8ee\	-ple-	4a/	4ee\
!	!	!	!	!	!	!	!	!	!	!	!LO:MO:mod=-bit	!	!
8B\	.	16b/L	16ee\L	16B\	-bit	16e,\	-bit	16b\	-bit	16ee,\	-vit	.	.
.	.	16b/JJ	16ee\JJ	16B\	im-	16e\	im-	16b\	im-	16ee\	im-	.	.
8E\	#	8ee\L	8gg#X\L	8E\	-ple-	8e\	-ple-	8g#X\	-ple-	8b\	-ple-	8r	8r
!	!	!	!	!	!	!	!	!	!	!	!LO:MO:mod=-bit	!	!
8E\J	.	8ee\J	8gg#\J	16E\	-bit	16e\	-bit	16g#\	-bit	16b,\	-vit	8a/	8ee\
.	.	.	.	16E\	ru-	16e\	ru-	16g#\	ru-	16b\	ru-	.	.
=8	=8	=8	=8	=8	=8	=8	=8	=8	=8	=8	=8	=8	=8
8A\L	.	8ee\L	8aa\L	8A\L	-i-	8e\	-i-	8a\	-i-	8cc#\	-i-	4a/	8ee\L
16G#X\L	.	8ee\J	8aa\J	16G#X\L	.	8e\	-nas	8a\	-nas	8cc#\	-nas	.	16ee\L
16F#\JJ	.	.	.	16F#\JJ	.	.	.	.	.	.	.	.	16ee\JJ
16E\LL	.	8r	8r	16E\LL	.	8r	.	8r	.	8r	.	16a/LL	8ee\L
16D\	.	.	.	16D\	.	.	.	.	.	.	.	16a/J	.
16C#\	.	8ee\	8ee\	16C#\	.	8e\	ru-	8a\	ru-	8ee\	ru-	8a/J	8ee\J
16BB\JJ	.	.	.	16BB\JJ	.	.	.	.	.	.	.	.	.
8AA/L	.	8aa\L	8aa\L	8AA/	.	8e\	-i-	8a\	-i-	8aa\L	-[[i]]-	8a/	4ee\
!	!	!	!	!	!	!	!	!	!	!LO:SIC:v:s=16gg#\L	!	!	!
8AA/J	.	16gg#X\L	16gg#X\L	8AA/	-nas	8e\	-nas	8a\	-nas	16gg\L	.	4a/	.
.	.	16ff#\JJ	16ff#\JJ	.	.	.	.	.	.	16ff#\JJ	.	.	.
8r	.	16ee\LL	16ee\LL	8r	.	8r	.	8r	.	16ee\LL	.	.	4r
.	.	16dd\	16dd\	.	.	.	.	.	.	16dd\	.	.	.
8A\	.	16cc#\	16cc#\	8A\	im-	8e\	im-	8a\	im-	16cc#\	.	8r	.
.	.	16b\JJ	16b\JJ	.	.	.	.	.	.	16b\JJ	.	.	.
=9	=9	=9	=9	=9	=9	=9	=9	=9	=9	=9	=9	=9	=9
!LO:TX:t=P:problem=mixed beam	!	!	!	!	!	!	!	!	!	!	!	!	!
8A\L	.	8a/L	8a/L	8A\	-ple-	8e\	-ple-	8a\	-ple-	8a\	-i-	8a/L	8ee\L
8AA/J	.	16a/L	16a/L	16AA/	-bit	16e\	-bit	16a\	-bit	16a,\	-nas	16a/L	16ee\L
.	.	16a/JJ	16a/JJ	16AA/	im-	16e\	im-	16a\	im-	16a\	im-	16a/JJ	16ee\JJ
!	!	!	!	!	!	!	!	!LO:LB:g=original	!	!	!	!	!
8A\L	.	8ee\L	8ggn\L	8A\	-ple-	8e\	-ple-	8a\	-ple-	8ee\	-ple-	8a/L	8ee\L
!	!	!	!	!	!	!	!	!	!	!	!LO:MO:mod=-bit	!	!
16B\L	.	16ee\L	16gg\L	16B\	-bit	16e\	-bit	16a\	-bit	16ee,\	-vit	8a/J	8ee\J
16c#\JJ	.	16ee\JJ	16gg\JJ	16c#\	ru-	16e\	ru-	16a\	ru-	16ee\	ru-	.	.
!	!	!	!	!LO:LB:g=original	!	!	!	!	!	!	!	!	!
!LO:TX:t=P:problem=mixed beam	!	!	!	!	!	!	!	!	!	!	!	!	!
8d\L	.	16dd\LL	16ff#\LL	8d\	-i-	8d\	-i-	8a\	-i-	8ff#\	-i-	8dd\L	8ff#\L
.	.	16a\	16dd\	.	.	.	.	.	.	.	.	.	.
8D/J	.	16ff#\	16aa\	8D/	-nas	8d\	-nas	8a\	-nas	8ff#\	-nas	8dd\J	8ff#\J
.	.	16dd\JJ	16ff#\JJ	.	.	.	.	.	.	.	.	.	.
8r	.	16ff#\LL	16aa\LL	8r	.	8r	.	8r	.	8r	.	8r	8r
.	.	16dd\	16ff#\	.	.	.	.	.	.	.	.	.	.
8d\	.	16ff#\	16aa\	8d\	im-	8d\	im-	8a\	im-	8ff#\	im-	8dd\	8ff#\
.	.	16dd\JJ	16ff#\JJ	.	.	.	.	.	.	.	.	.	.
!	!	!	!	!	!	!LO:LB:g=original	!	!	!	!LO:LB:g=original	!	!LO:LB:g=original	!
=10	=10	=10	=10	=10	=10	=10	=10	=10	=10	=10	=10	=10	=10
8d\L	.	16ff#\LL	16aa\LL	8d\L	-ple-	8d\	-le-	8a\	-ple-	8ff#\	-ple-	8dd\L	8ff#\L
.	.	16dd\	16ff#\	.	.	.	.	.	.	.	.	.	.
!	!	!	!	!	!	!	!	!	!	!	!LO:MO:mod=-bit	!	!
16c#\L	.	16ff#\	16aa\	16c#\L	.	8d\	-bit	8a\	-bit	8ff#\	-vit	8dd\J	8ff#\J
16B\JJ	.	16dd\JJ	16ff#\JJ	16B\JJ	.	.	.	.	.	.	.	.	.
16A\LL	.	16ff#\LL	16aa\LL	16A\LL	.	8r	.	8r	.	8r	.	8r	8r
16Gn\	.	16dd\	16ff#\	16G\	.	.	.	.	.	.	.	.	.
16F#\	.	16ff#\	16aa\	16F#\	.	8c#\	im-	8a\	im-	8ee\	im-	8a/	8ee\
16E\JJ	.	16dd\JJ	16ff#\JJ	16E\JJ	.	.	.	.	.	.	.	.	.
!LO:TX:t=P:problem=mixed beam	!	!	!	!	!	!	!	!	!	!	!	!	!
8D\L	.	8ff#\L	8aa\L	8D/	.	8d\	-ple-	8a\	-ple-	8ff#\	-ple-	8dd\L	8ff#\L
!	!	!	!	!	!	!	!	!	!	!	!LO:MO:mod=-bit	!	!
8G\	.	8aa\J	8ddd\J	16G\	-bit	16d\	-bit	16b\	-bit	16ff#,\	-vit	16dd\L	16ff#\L
.	.	.	.	16G\	ru-	16d\	ru-	16b\	ru-	16ff#\	ru-	16dd\JJ	16ff#\JJ
!	!	!LO:TX:t=P:problem=mixed beam	!LO:TX:t=P:problem=mixed beam	!LO:TX:t=P:problem=mixed beam	!	!	!	!	!	!	!	!	!
8A\	.	8a/L	8a/L	8A\L	-i-	4c#\	-i-	4a\	-i-	4ee\	-i-	4a/	4ee\
8AA/J	.	8ggn\J	8ccc#\J	8AA/J	.	.	.	.	.	.	.	.	.
=11	=11	=11	=11	=11	=11	=11	=11	=11	=11	=11	=11	=11	=11
4D/	.	8ff#\	8ddd\	8D/	-nas	8d\	-nas	8a\	-nas	8ff#,\	-nas	4dd\	4ff#\
.	.	4ff#\	4dd\	8r	.	4d\	con-	8r	.	4dd\	con-	.	.
4r	.	.	.	4r	.	.	.	4r	.	.	.	4r	4r
.	.	8ff#\	8dd\	.	.	8d\	-quaſ-	.	.	8dd\	-quaſ-	.	.
!	!	!LO:LB:g=original	!	!	!	!	!	!	!	!	!	!	!
8r	.	8ff#\L	8dd\L	8r	.	8d\	-sa-	8r	.	8dd\L	-sa-	8r	8r
4d\	.	8dd\J	8ff#\	4d\	con-	4f#\	.	4dd\	con-	8ff#\	.	4dd\	4ff#\
.	.	8a/L	8aa\	.	.	.	.	.	.	8aa\	.	.	.
8d\	.	8f#/J	8ff#\J	8d\	-quaſ-	8f#\	-bit	8dd\	-quaſ-	(8ff#\J	.	8dd\	8ff#\
!	!	!	!LO:LB:g=original	!	!	!	!	!	!	!	!	!	!
=12	=12	=12	=12	=12	=12	=12	=12	=12	=12	=12	=12	=12	=12
8d\L	.	8dd\L	8dd\L	8d\L	-sa-	8f#\	con-	8dd\	-sa-	8dd\)	.	8dd\L	8ff#\L
8A\	6_ 4_	16ee\L	16ee\L	8A\	.	8f#\	-quaſ-	4a\	.	8dd,\	-bit	8dd\J	8ff#\
.	.	16ff#\JJ	16ff#\JJ	.	.	.	.	.	.	.	.	.	.
8F#\	x x	16gg\LL	16gg\LL	8F#\	.	8f#\	-sa-	.	.	8dd\	con-	8dd\L	8ff#\
.	.	16aa\	16aa\	.	.	.	.	.	.	.	.	.	.
8A\J	X X	16bb\	16bb\	8A\J	.	8f#\	-bit	8f#\	.	8dd\	-quaſ-	16dd\L	8ff#\J
.	.	16ee\JJ	16ccc#\JJ	.	.	.	.	.	.	.	.	16dd\JJ	.
*	*	*	*	*	*	*	*ij	*	*	*	*	*	*
8D\L	.	16ff#\LL	16ddd\LL	8D/	.	8f#\	con-	8f#\	.	8dd\	-sa-	8dd\L	8ff#\L
.	.	16aa\	16dd\	.	.	.	.	.	.	.	.	.	.
8D\	.	16ff#\	16ddd\	8D/	-bit	8f#\	-quaſ-	8f#\	bit	8dd,\	-bit	8dd\	8ff#\
.	.	16aa\JJ	16dd\JJ	.	.	.	.	.	.	.	.	.	.
8F#\	.	16ff#\LL	16ddd\LL	8F#\	con-	8f#\	-sa-	8d\	con-	8dd\	con-	8dd\	8ff#\
.	.	16aa\	16dd\	.	.	.	.	.	.	.	.	.	.
8D\J	.	16ff#\	16ddd\	8d\	-quaſ-	8f#\	-bit	8a\	-quaſ-	8dd\	-quaſ-	8dd\J	8ff#\J
*	*	*	*	*	*	*	*Xij	*	*	*	*	*	*
.	.	16aa\JJ	16dd\JJ	.	.	.	.	.	.	.	.	.	.
=13	=13	=13	=13	=13	=13	=13	=13	=13	=13	=13	=13	=13	=13
!	!	!	!LO:TX:t=P:problem=mixed beam	!	!	!	!	!	!	!	!	!	!
8A\L	.	16ee\LL	16aa\LL	8c#\L	-sa-	8c#|\L	con-	8a\L	-sa-	8ee\L	-sa-	8a/L	8ee\L
.	.	16cc#\	16a/	.	.	.	.	.	.	.	.	.	.
8A\	.	16ee\	16aa\	8A\	.	(16A\L	-quaſ-	8cc#\	.	16cc#\L	.	8a/J	8ee\J
.	.	16cc#\JJ	16a/JJ	.	.	16B\JJ	.	.	.	16dd\JJ	.	.	.
!	!	!	!LO:TX:t=P:problem=mixed beam	!	!	!	!	!	!	!	!	!	!
8A\	.	16ee\LL	16aa\LL	8E\	.	4c#\)	-sa-	8a\	.	[4ee\	.	4r	4r
.	.	16cc#\	16a/	.	.	.	.	.	.	.	.	.	.
8A\J	.	16ee\	16aa\	8C#\J	.	.	.	8e\J	.	.	.	.	.
.	.	16cc#\JJ	16a/JJ	.	.	.	.	.	.	.	.	.	.
!	!	!	!	!LO:TX:t=P:problem=mixed beam	!	!	!	!	!	!	!	!	!
!	!	!	!LO:TX:t=P:problem=mixed beam	!	!	!	!	!LO:LB:g=original	!	!	!	!	!
8A\L	.	16ee\LL	16aa\LL	8AA/L	.	8c#\L	.	8a\	.	8ee\L]	.	8r	8r
.	.	16cc#\	16a/	.	.	.	.	.	.	.	.	.	.
8A\	.	16ee\	16aa\	16A\L	.	16A\L	.	8a\	-bit	16cc#\L	.	8a/L	8ee\L
.	.	16cc#\JJ	16a/JJ	16B\JJ	.	16B\JJ	.	.	.	16dd\JJ	.	.	.
!	!	!	!LO:TX:t=P:problem=mixed beam	!	!	!	!	!	!	!	!	!	!
8A\	.	16ee\LL	16aa\LL	16A\LL	.	16c#\LL	.	8a\	con-	16ee\LL	.	8a/	8ee\
.	.	16cc#\	16a/	16B\	.	16d\	.	.	.	16ff#\	.	.	.
8A\J	.	16ee\	16aa\	16A\	.	16c#\	.	8a\	-quaſ-	16ee\	.	8a/J	8ee\J
.	.	16cc#\JJ	16a/JJ	16B\JJ	.	16d\JJ	.	.	.	16ff#\JJ	.	.	.
!	!	!	!	!LO:LB:g=original	!	!	!	!	!	!	!	!	!LO:LB:g=original
=14	=14	=14	=14	=14	=14	=14	=14	=14	=14	=14	=14	=14	=14
!	!	!	!LO:TX:t=P:problem=mixed beam	!	!	!	!	!	!	!	!	!	!
8A\L	.	16ee\LL	16aa\LL	16A\LL	.	16c#\LL	.	8a\	-sa-	16ee\LL	.	8a/L	8ee\L
.	.	16cc#\	16a/	16B\	.	16d\	.	.	.	16ff#\	.	.	.
8A\	.	16ee\	16aa\	16A\	.	16c#\	.	8a\	-bit	16ee\	.	8a/	8ee\
.	.	16cc#\JJ	16a/JJ	16B\JJ	.	16d\JJ	.	.	.	16ff#\JJ	.	.	.
!	!	!	!LO:TX:t=P:problem=mixed beam	!	!	!	!	!	!	!	!	!	!
8A\	.	16ee\LL	16aa\LL	16A\LL	.	16c#\LL	.	8a\	con-	16ee\LL	.	8a/	8ee\
.	.	16cc#\	16a/	16B\	.	16d\	.	.	.	16ff#\	.	.	.
8A\J	.	16ee\	16aa\	16A\	.	16c#\	.	8a\	-quaſ-	16ee\	.	8a/J	8ee\J
.	.	16cc#\JJ	16a/JJ	(16B\JJ	.	16d\JJ	.	.	.	16ff#\JJ	.	.	.
!	!	!	!	!	!	!	!	!	!	!LO:LB:g=original	!	!	!
!	!	!	!	!	!	!LO:LB:g=original	!	!	!	!	!	!	!
8A\L	.	16ee\LL	8ee\L	8A\)	.	8c#\	.	16a\LL	-sa-	8ee\	.	8a/L	8ee\L
.	.	16ff#\	.	.	.	.	.	16b\	.	.	.	.	.
8A\	.	16ee\	8aa\	8A\	-bit	8e\	-bit	16a\	.	8aa,\	-bit	8a/	8ee\
.	.	16ff#\JJ	.	.	.	.	.	16b\JJ	.	.	.	.	.
8A\	.	16ee\LL	8ee\	8A\	con-	8c#\	con-	16a\LL	.	8ee\	con-	8a/	8ee\
.	.	16ff#\	.	.	.	.	.	16b\	.	.	.	.	.
8A\J	.	16ee\	8cc#\J	8A\	-quaſ-	8A/	-quaſ-	16a\	.	8cc#\	-quaſ-	8a/J	8ee\J
.	.	16ff#\JJ	.	.	.	.	.	16b\JJ	.	.	.	.	.
=15	=15	=15	=15	=15	=15	=15	=15	=15	=15	=15	=15	=15	=15
8A\L	7n	8ee\	8a/	8A\	-sa-	8c#\	-sa-	16a\LL	.	8a\	-sa-	8a/L	8ee\L
.	.	.	.	.	.	.	.	16b\	.	.	.	.	.
8A\	.	4ee\	4gg\	4c#\	.	4e\	.	16a\	.	4gg\	.	8a/	8ee\
.	.	.	.	.	.	.	.	16b\JJ	.	.	.	.	.
8A\	.	.	.	.	.	.	.	16a\LL	.	.	.	8a/	8ee\
.	.	.	.	.	.	.	.	16b\JJ	.	.	.	.	.
8A\J	.	8ee\	8gg\	8A\	-bit	8e\	-bit	8a\	-bit	8gg,\	-bit	8a/J	8ee\J
!LO:TX:t=P:problem=mixed beam	!	!	!	!	!	!	!	!	!	!	!	!	!
8d\L	.	16ff#\LL	16ff#\LL	16d\	Ca-	16d\	ca-	16a\	ca-	16ff#\	Ca-	8dd\L	8ff#\L
.	.	16dd\	16dd\	16D/	-pi-	16d\	-pi-	16a\	-pi-	16ff#\	-pi-	.	.
8D/	.	16ee\	16ee\	8D/	-ta	8d\	-ta	8a\	-ta	8ff#,\	-ta	8dd\	8ff#\
.	.	16ff#\JJ	16ff#\JJ	.	.	.	.	.	.	.	.	.	.
8d\	.	16gg\LL	16gg\LL	8d\	con-	8d\	con-	8a\	con-	8ff#\	Con-	8dd\	8ff#\
.	.	16aa\	16aa\	.	.	.	.	.	.	.	.	.	.
8D/J	.	16bb\	16bb\	8D/	-quaſ-	8d\	-quaſ-	8a\	-quaſ-	8ff#\	-quaſ-	8dd\J	8ff#\J
.	.	16ccc#\JJ	16ccc#\JJ	.	.	.	.	.	.	.	.	.	.
!	!	!LO:LB:g=original	!	!	!	!	!	!	!	!	!	!	!
=16	=16	=16	=16	=16	=16	=16	=16	=16	=16	=16	=16	=16	=16
!LO:TX:t=P:problem=mixed beam	!	!	!	!	!	!	!	!	!	!	!	!	!
8d\L	.	8ddd\L	8ddd\L	8d\	-sa-	8d\	-sa-	8a\	-sa-	8ff#\	-sa-	8dd\L	8ff#\L
8D/J	.	16ccc#\L	16ccc#\L	8D/	-bit	8d\	-bit	8a\	-bit	8ff#\	-bit	8dd\J	8ff#\J
.	.	16bb\JJ	16bb\JJ	.	.	.	.	.	.	.	.	.	.
8D/L	.	16aa\LL	16aa\LL	4r	.	4r	.	4r	.	4r	.	4r	4r
.	.	16gg\	16gg\	.	.	.	.	.	.	.	.	.	.
8D/J	.	16ff#\	16ff#\	.	.	.	.	.	.	.	.	.	.
.	.	16ee\JJ	16ee\JJ	.	.	.	.	.	.	.	.	.	.
4D/	.	4dd\	4dd\	2r	.	2r	.	2r	.	2r	.	2r	2r
4r	.	4r	4r	.	.	.	.	.	.	.	.	.	.
!	!	!	!LO:LB:g=original	!	!	!	!	!	!	!	!	!	!
=17	=17	=17	=17	=17	=17	=17	=17	=17	=17	=17	=17	=17	=17
!LO:TX:i:a:t=adagio	!	!LO:TX:i:a:t=adagio	!	!LO:TX:i:a:t=adagio	!	!LO:TX:i:a:t=adagio	!	!LO:TX:i:a:t=adagio	!	!LO:TX:i:b:t=adagio	!	!LO:TX:i:a:t=adagio	!LO:TX:i:a:t=adagio
2G#X\	6 5	2ee\	2bb\	2G#X\	in	2d\	in	2b\	in	2ee\	In	2dd\	2ee\
!	!	!	!	!	!	!	!	!	!	!	!	!LO:LB:g=original	!
4A\	.	4ee\	4aa\	4A\	ter-	4c#\	ter-	4a\	ter-	4ee\	ter-	4a/	4ee\
8F#\L	6	8ff#\L	8aa\L	8F#\	-ra	8d\	-ra	8a\	-ra	8ff#\	-ra	8dd\L	8ff#\L
8D\J	.	8ff#\J	8aa\J	8D/	mul-	8d\	mul-	8a\	mul-	8ff#\	mul-	8dd\J	8ff#\J
=18	=18	=18	=18	=18	=18	=18	=18	=18	=18	=18	=18	=18	=18
!	!	!	!	!	!	!	!	!LO:LB:g=original	!	!	!	!	!
1AA	.	1ee	2aa\	1AA	-to-	1c#	-to-	1a	-to-	1ee	-to-	1a	1ee
.	.	.	2aa\	.	.	.	.	.	.	.	.	.	.
=19	=19	=19	=19	=19	=19	=19	=19	=19	=19	=19	=19	=19	=19
1DD	.	1ff#	1aa	1D	-rum	1d	-rum.	1a	-rum	1ff#	-rum	1dd	1ff#
==	==	==	==	==	==	==	==	==	==	==	==	==	==
*-	*-	*-	*-	*-	*-	*-	*-	*-	*-	*-	*-	*-	*-
!!!system-decoration: [(g1)][(g2)][(g3)](s9)
!!!RDF**kern: | = vertical stroke
!!!ENC: Krzysztof Stępień
!!!END: 2020-08-03
!!!ENC: Kamil Watkowski
!!!END: 2022-03-06
